Obsidian-SemiLight/actions/16s/draw-ellipse-arc.svg

<svg viewBox="0 0 16 16" xmlns="http://www.w3.org/2000/svg"><g fill="#4d4d4d" transform="translate(-421.71 -531.79)"><path d="m5.09375 2.765625a6 6 0 0 0 -3.09375 5.234375 6 6 0 0 0 6 6 6 6 0 0 0 6-6 6 6 0 0 0 -.089844-1h-1.015156a5 5 0 0 1 .105 1 5 5 0 0 1 -5 5 5 5 0 0 1 -5-5 5 5 0 0 1 2.724609-4.445312z" transform="translate(421.71 531.79)"/><path d="m427.43 535.34c-1.669.856-2.719 2.574-2.719 4.449 0 2.761 2.239 5 5 5s5-2.239 5-5c-.001-.333-.036-.664-.104-.99 0 0-7.181-3.477-7.178-3.459" fill-opacity=".5"/></g></svg>

<svg xmlns="http://www.w3.org/2000/svg" viewBox="0 0 16 16">
  <defs id="defs3051">
    <style type="text/css" id="current-color-scheme">
      .ColorScheme-Text {
        color:#4d4d4d;
      }
      </style>
  </defs>
  <g transform="translate(-421.71-531.79)">
 <path style="fill:currentColor;fill-opacity:1;stroke:none" 
     d="M5.09375 2.765625A6 6 0 0 0 2 8 6 6 0 0 0 8 14 6 6 0 0 0 14 8 6 6 0 0 0 13.910156 7H12.895A5 5 0 0 1 13 8 5 5 0 0 1 8 13 5 5 0 0 1 3 8 5 5 0 0 1 5.724609 3.554688z" transform="translate(421.71 531.79)" 
     class="ColorScheme-Text"
     />
 <path style="fill:currentColor;fill-opacity:0.5;stroke:none" 
     d="m427.43 535.34c-1.669.856-2.719 2.574-2.719 4.449 0 2.761 2.239 5 5 5 2.761 0 5-2.239 5-5-.001-.333-.036-.664-.104-.99 0 0-7.181-3.477-7.178-3.459"
     class="ColorScheme-Text"
     />
 </g>
</svg>
